packages/icons/svg/Fill/phone-off.svg

<svg width="24" height="24" viewBox="0 0 24 24" fill="none" xmlns="http://www.w3.org/2000/svg">
<g id="Icon/Fill/phone-off">
<path id="Mask" fill-rule="evenodd" clip-rule="evenodd" d="M9.27349 12.0547C8.97149 11.6087 8.70149 11.1387 8.47449 10.6447C9.71349 9.9947 9.71749 9.99169 9.85449 9.84969C10.0875 9.60669 10.1825 9.26169 10.1075 8.93369L8.73849 2.96969C8.66149 2.63369 8.41749 2.36169 8.09149 2.24869C7.85449 2.16569 7.60849 2.10469 7.36549 2.06569C7.11649 2.02269 6.86049 1.99969 6.59949 1.99969C4.06349 1.99969 2.00049 4.06369 2.00049 6.59969C2.00049 10.1657 3.22949 13.4437 5.27149 16.0567L9.27349 12.0547ZM21.9356 16.6387C21.8956 16.3887 21.8326 16.1437 21.7506 15.9087C21.6386 15.5827 21.3666 15.3387 21.0306 15.2617L15.0666 13.8927C14.7376 13.8197 14.3936 13.9117 14.1506 14.1457L14.15 14.1463C14.0076 14.2827 14.0037 14.2864 13.3546 15.5277C12.8606 15.3027 12.3896 15.0327 11.9426 14.7287L7.94359 18.7287C10.5566 20.7707 13.8336 21.9997 17.4006 21.9997C19.9366 21.9997 21.9996 19.9367 21.9996 17.4007C21.9996 17.1417 21.9776 16.8867 21.9356 16.6387ZM18.4824 4.26069C18.8304 3.91269 19.3924 3.91269 19.7394 4.26069C20.0874 4.60769 20.0874 5.16969 19.7394 5.51769L5.51739 19.7397C5.17039 20.0867 4.60739 20.0867 4.26039 19.7397C4.08739 19.5667 4.00039 19.3387 4.00039 19.1117C4.00039 18.8837 4.08739 18.6567 4.26039 18.4827L18.4824 4.26069Z" fill="#000000"/>
</g>
</svg>

<svg fill="none" height="24" viewBox="0 0 24 24" width="24" xmlns="http://www.w3.org/2000/svg"><path clip-rule="evenodd" d="m9.2734 12.0545c-.302-.446-.572-.916-.799-1.41 1.239-.64999 1.243-.65299 1.38-.79499.233-.243.328-.588.253-.916l-1.369-5.964c-.077-.336-.321-.608-.647-.721-.237-.083-.483-.144-.726-.183-.249-.043-.505-.066-.766-.066-2.536 0-4.599 2.064-4.599 4.6 0 3.56599 1.229 6.84399 3.271 9.45699zm12.6621 4.5841c-.04-.25-.103-.495-.185-.73-.112-.326-.384-.57-.72-.647l-5.964-1.369c-.329-.073-.673.019-.916.253l-.0006.0006c-.1424.1364-.1463.1402-.7954 1.3814-.494-.225-.965-.495-1.412-.799l-3.99899 4c2.61299 2.042 5.88999 3.271 9.45699 3.271 2.536 0 4.599-2.063 4.599-4.599 0-.259-.022-.514-.064-.762zm-3.4532-12.37802c.348-.348.91-.348 1.257 0 .348.347.348.909 0 1.257l-14.22204 14.22202c-.347.347-.91.347-1.257 0-.173-.173-.26-.401-.26-.628 0-.228.087-.455.26-.629z" fill="#6b7280" fill-rule="evenodd"/></svg>
